src/16/actions/document-save-all.svg

<svg xmlns="http://www.w3.org/2000/svg" viewBox="0 0 16 16">
  <defs id="defs3051">
    <style type="text/css" id="current-color-scheme">
      .ColorScheme-Text {
        color:#5d656b;
      }
      </style>
  </defs>
 <path style="fill:currentColor;fill-opacity:1;stroke:none" 
     d="M 5 2 L 5 4 L 2 4 L 2 14 L 12 14 L 12 12 L 14 12 L 14 4.28125 L 11.71875 2 L 11.6875 2 L 11 2 C 10.99995 1.99997 5 2 5 2 z M 6 3 L 11.28125 3 L 13 4.71875 L 13 5 L 13 11 L 12 11 L 12 6.28125 L 9.71875 4 L 9.6875 4 L 9 4 L 6 4 L 6 3 z M 3 5 L 4 5 L 4 8 L 9 8 L 9 7 L 9 5 L 9.28125 5 L 11 6.71875 L 11 7 L 11 13 L 10 13 L 10 11 L 4 11 L 4 13 L 3 13 L 3 5 z M 5 5 L 7 5 L 7 7 L 5 7 L 5 5 z M 5 12 L 9 12 L 9 13 L 5 13 L 5 12 z "
     class="ColorScheme-Text"
     />
</svg>

<svg xmlns="http://www.w3.org/2000/svg" viewBox="0 0 16 16"><path d="M5 2v2H2v10h10v-2h2V4.281L11.719 2H11 5zm1 1h5.281L13 4.719V11h-1V6.281L9.719 4H6V3zM3 5h1v3h5V5h.281L11 6.719V13h-1v-2H4v2H3V5zm2 0h2v2H5V5zm0 7h4v1H5v-1z" fill="currentColor" color="#5d656b"/></svg>
